X: 1
T: Fairy, The
M: 9/8
L: 1/8
R: slip jig
K: Ador
|:A2G Add Add|ABA AFA fAg|A2G Add ded|cAG AAG FDD:|
|:a2g fab afd|afd dfa baf|afa baf afd|cAG AAG FDD:|
